X:22003
T:Valiant, The
R:Jig
C:Simon Ritchie abt1998
O:England, Essex
Z:Paul Hardy's Session Tunebook 2015 (see www.paulhardy.net). Creative Commons cc by-nc-sa licenced.
M:6/8
L:1/8
Q:3/8=110
K:G
A|"G" B2B BAG|"D" B2A ABA|"Em" G2G GAG|"D" G2F F2D|"C" E2E EFG|"D" E2D D2D|"Em" G2G GAB|"D7" B2A A3|
"G" B2B BAG|"D" B2A ABA|"Em" G2G GAG|"G" G2F F2D|"C" E2E EFG|"Em" BAG "D7"FED|"Em" EFG "D"AGF|"G" F2G G2||
|:A|"G" d3 "C"e3|"D" dcB AGF|"G" G2G GAB|"D" B2A A3|"G" dBd "C"ece|"D" dcB AGF|"G" G2G "D7"GAB|"G" A2G G2:|
|:G|"C" E2E EFG|"D" E2D D2D|"G" G2G GAB|"D" B2A A2D|"C" E2E EFG|"Em" BAG FED|"D7" EFG AGF|"G"F2G G2:|

